X:1
T:ALLEY CAT SONG
T:ALLEY CAT SONG
T:Frank Bjorn
T:Jack Harlen
C:Frank Bjorn
Z:All Rights Reserved
L:1/4
M:4/4
K:C
V:1 treble 
%%MIDI program 40
%%MIDI control 7 100
%%MIDI control 10 64
V:1
|:"C" c B A _A | G ^G A z | G ^G A ^A |"G7" B z z2 | c B A _A | G ^G A z |1 G ^G A F || %7
w: He goes on the|prowl each night|like an al- ley|cat,|Look- in for some|new de- light|like an al- ley|
w: She can't trust him|out of sight,|there's no doubt of|that.|He just don't know|wrong from right||
"C" E z z2 :|2 G ^G A B ||"C" c z z c |"F" d d2 ^c | d3 c |"C/E" d d2 ^c | d3 c |"D7/F#" d d2 ^c | %15
w: cat.|like an al- ley|cat. He|meets 'em (Mee-|ow) and|loves 'em (Mee-|ow) and|leaves 'em (Mee-|
w: ||||||||
 d4 |"Dm7" d c B A |"G7" G _G F z |"C" c B A _A | G ^G A z | G ^G A ^A |"G7" B z z2 | c B A _A | %23
w: ow)|that's what Cat- sa-|no- va does.|It's no way to|treat a pal,|She should tell him,|scat!|Aren't you sor- ry|
w: ||||||||
 G ^G A z | G ^G A B |"C" c z"C7" z/ e/e/>c/ |"F" d/c/d/c/ d/_e/d/c/ |"C" e/^d/e/A/-"A7" A2 | %28
w: for that gal|with her al- ley|cat? And that's the|sad, * sad * tale * of a|lone * some frail, *|
w: |||||
"D7" z/ A ^A/"G7" B G/c/- |"C" c4 |] %30
w: and her al- ley cat.-||
w: ||

